X:1
T:Old Joe
R:Reel
M:C|
%%printtempo 0
Q:190
K:C
"C"[E3c3] d cAGc|"F"A^GAB cBcd|"C"eg- ge ge"Am"ag|"G7"ega_b aged|
"C"c2 cd cAGc|"F"A^GAB cBcd|"G"ega_b agea|gedB "C"c4:|
|:"Am"A,4C4|EA- A_E "E"DCA,G,|"Am"A,4C4|"F7"_E3 E DCA,G,|
"Am"A,2A,2C2D2|EA- A_E "F7"DCA,C|"C"G,2c2 "F"cAGF|"G"ECDB, "C"C4:|
